app/dist/common/images/guild-company.svg

<svg height="18" viewBox="0 0 18 18" width="18" xmlns="http://www.w3.org/2000/svg"><path d="m0 0h18v18h-18z" fill="#f0f3fa"/><path d="m12 4.64v2.06c-1-.46-1.28-.7-2.4-.7-1.13 0-2.6.8-2.6 3.1 0 2.28 1.5 2.9 2.34 2.9.6 0 1.4-.18 1.66-.27v-1.73h-2v-2h4v5.03c-.63.33-2.28.97-3.83.97-1.94-0-5.17-1.37-5.17-4.9 0-3.54 2.87-5.1 4.93-5.1 1.65 0 2.57.43 3.07.64z" fill="#2f2f7f"/></svg>

<!-- by TradingView --><svg width="18" height="18" viewBox="0 0 18 18" xmlns="http://www.w3.org/2000/svg"><path fill="#F0F3FA" d="M0 0h18v18H0z"/><path d="M12 4.64V6.7C11 6.24 10.72 6 9.6 6 8.47 6 7 6.8 7 9.1 7 11.38 8.5 12 9.34 12c.6 0 1.4-.18 1.66-.27V10H9V8h4v5.03c-.63.33-2.28.97-3.83.97C7.23 14 4 12.63 4 9.1 4 5.56 6.87 4 8.93 4c1.65 0 2.57.43 3.07.64Z" fill="#2F2F7F"/></svg>
